X:1
T:Unquiet Thoughts your civil slaughter stint
T:Ayres and Lute Songs I (1597)
T:John Dowland
T:Pubblico dominio Scritto con MuseScore, un software libero e gratuito: http://musescore.org/it 
T:Pubblico dominio Scritto con MuseScore, un software libero e gratuito: http://musescore.org/it 
T:Pubblico dominio Scritto con MuseScore, un software libero e gratuito: http://musescore.org/it 
T:Pubblico dominio Scritto con MuseScore, un software libero e gratuito: http://musescore.org/it 
Z:Pubblico dominio
Z:Scritto con MuseScore, un software libero e gratuito: http://musescore.org/it
%%score [ 1 2 3 4 ]
L:1/8
M:2/1
K:Bb
V:1 treble nm="Soprano"
V:2 treble nm="Contralto"
V:3 treble-8 nm="Tenore"
V:4 bass nm="Basso"
V:1
 d4 d2 d2 e8 | z2 d4 c4 B2 A3 A | A4 z2 A2 B2 c2 d4 | e2 d4 c2 d2 B2 A4 | z4 z2 c2 B2 G2 B4 | %5
w: Un\- qui\- et thoughts|your ci\- vill slaugh\- ter|stint, and wrap your wrongs|with\- in a pen\- sive heart:|and you my tongue|
 A2 d3 (c B2) c2 c2 d4 | z2 A2 B2 d4 c4 G2 | ^F2 B2 A3 A G8 |: z2 d4 B4 d2 c2 A2 | %9
w: that makes my * mouth a mint,|and stamps my thoughts to|coin them words by art:|Be still: for if you|
 B2 G2 B2 c2 d4 z2 A2 | c2 c2 G2 G2 B2 B2 F2 F2 | B2 G2 A2 A2 |1 G8 :|1 G8 z8 |] %14
w: ev\- er do the like, I'll|cut the string, Ile cut the string, that|makes the ham\- mer|strike.|strike|
V:2
 B4 B2 B2 G8 | D4 D2 =E2 (^F2 G4) F2 | G4 z2 ^F2 G2 A2 B3 B | A2 ^F2 G3 G F2 z G c2 A2 | %4
w: Un\- qui\- et thoughts|your ci\- vill slaugh\- * ter|stint, and wrap your wrongs with\-|in a pen\- sive heart, and you my|
 B2 G2 G2 ^F2 G3 G D4 | F2 B3 A G2 A B2 A B2 z B | A2 ^F2 G3 =F (D=E =F2) _E4 | %7
w: tongue that makes my mouth a minte,|my tongue that makes my mouth a mint, and|stamps my thoughts to coin _ _ them|
 D4 D3 C =B,4 z2 G2 |: ^F2 A2 D2 G2 =F6 C2 | D2 D2 G3 G ^F4 z2 C2 | C2 E2 E2 B,2 D2 D2 D2 D2 | %11
w: words by _ art be|still be still for if you|ev\- er do the like, I'll|cut the string, I'll cut the string, that|
 D2 C3 A, D2 |1 =B,4 z2 G2 :|1 =B,8 z8 |] %14
w: makes the ham\- mer|strike. Be|strike.|
V:3
 f4 g2 fB B8 | B6 A4 G2 d3 c | =B4 z2 d2 d2 f2 f3 d | c c B3 (A G2) A2 z B c2 A2 | %4
w: Un qui\- et * thoughts,|your civ\- il slaugh\- ter|stint, and wrap your wrongs with\-|in a pen\- sive * heart and you my|
 d4 z2 B2 d4 z2 B2 | c2 G2 BcdB f2 G4 z B | c2 d2 G3 A B2 AB c3 B | A2 G2 G2 ^F2 G4 e4 |: %8
w: tongue my tongue that|makes my mouth _ _ _ a mint, and|stamps my thoughts, my thoughts to * coin to|coin them words by art, be|
 d3 c BA G2 B4 A2 F2- | F2 (B3 A G2) A2 A2 A2 A2 | G2 G2 G2 G2 F2 F2 (B2 A2- | A) G G4 ^F2 |1 %12
w: still for if * you ev\- er do|* the _ _ like, I'll cut the|string I'll cut the string that makes *|* the ham\- mer|
 G4 e4 :|1 G8 z8 |] %14
w: strike. Be|strike.|
V:4
 B,4 G,2 B,2 E,8 | G,4 D,4 D,4 D,2 D,2 | G,,4 z2 D,2 G,2 F,2 B,2 B,,2 | %3
w: Un qui\- et thoughts,|your civ\- il slaugh\- ter|stint, and wrap your wrongs with\-|
 C,2 D,2 E,3 E, D,2 G,4 ^F,2 | G,2 B,2 A,3 A, G,4 z2 G,2 | F,2 D,2 G,4 F,4 B,,4 | %6
w: in a pen\- sive heart, wrongs with\-|in a pens\- ive hart, that|makes my mouth a mint|
 z8 z2 F,2 C,2 C,2 | D,6 D,2 G,,4 z4 |: z8 z4 F,4 | D,2 (G,3 F, E,2) D,2 D,2 F,2 F,2 | %10
w: to coin them|words by art,|ev\-|er do _ the like, I'll cut the|
 C,2 C,2 E,2 E,2 B,,2 B,,2 D,2 D,2 | G,2 E,2 D,2 D,2 |1 G,4 z4 :|1 G,8 z8 |] %14
w: string, I'll cut the string, the string, that|makes the ham\- mer|strike.|strike.|

